X: 213
T: Round:  At Summer Morn.
O: Old English.
%R: waltz
B: "The Everyday Song Book", 1927
F: http://www.library.pitt.edu/happybirthday/pdf/The_Everyday_Song_Book.pdf
Z: 2016 John Chambers <jc:trillian.mit.edu>
M: 3/8
L: 1/8
K: A
% - - - - - - - - - - - - - - - - - - - - - - - - - - - - -
[V:1] E | (AE) A | (BE) B | (cE) c | d3 | (cB) A | D E2 | A2 |]
w: At sum-*mer morn* the mer-*ry lark her-*alds in the day;
[V:2] c | c2 c | B B2 | A A2 | G3 | (AB) c | (BA) G | A2 |]
w: At e-ven-tide sad Phi-lo-mel breathes* her plain-*tive lay,
[V:3] z | e3 | G3 | A3 | B3 | (cd) e | (dc) B | A2 |]
w: War-bling sweet-ly all* her grief* a-way.
% - - - - - - - - - - - - - - - - - - - - - - - - - - - - -
